X:24
T:Lichtmann 24
C:M. Ravel
M:C
L:1/8
Q:"Lento" 1/4=54
K:Bb
!p!(B4"_espressivo"-BcAG|F2(GA) (AG)G2)|(d4-decB|A2Bc- c)(dBA|
G2AB- BcAG|A6)z2|z2d4(d2-|d4-dcfd)|
(d2c2B2c2|G4-G)(FBA|G)(DFGA2)((3EDC|D8)|]

